X: 1
T: Jizaique
M: 4/4
L: 1/8
R: reel
K: Amin
E2 |:A2 cd e2 fe |d3 c B3/2c/ de |A2 cd e2 fe |1 B2 c2 d3 e :|2B2 c2 d4 ||
|:fe f/e/d ed e/d/c |AB cd e4 |fg f/e/d ef e/d/c |1Ac B/A/G G4 :|2Ac B/A/G A4 ||
